tetrification/src/assets/images/navbar/profile.svg

<svg width="35" height="40" viewBox="0 0 35 40" fill="none" xmlns="http://www.w3.org/2000/svg">
<path d="M26.6211 25.274L26.6213 25.2741C30.9918 27.256 33.2656 30.6693 33.9124 35.1263C34.2035 37.1531 32.5648 39.0001 30.4591 39.0001H4.48006C2.34059 39.0001 0.697308 37.0825 1.0478 35.008L1.04826 35.0052C1.5901 31.7426 3.10725 28.9338 6.00856 26.7764L6.00915 26.7759C12.3959 22.0195 19.5949 22.0857 26.6211 25.274Z" stroke="#E2D2FF" stroke-width="2"/>
<path d="M26.6203 9.79276L26.6203 9.79298C26.7026 14.4833 22.5441 18.6731 17.6123 18.729C12.5931 18.7848 8.54196 14.86 8.50331 9.98965L8.5033 9.98851C8.45904 5.11447 12.4429 1.07346 17.403 1.0008C22.2842 0.934303 26.5375 5.01384 26.6203 9.79276Z" stroke="#E2D2FF" stroke-width="2"/>
</svg>

<svg xmlns="http://www.w3.org/2000/svg" width="35" height="40" fill="none"><path stroke="#E2D2FF" stroke-width="2" d="M26.621 25.274c4.37 1.982 6.645 5.395 7.291 9.852C34.203 37.153 32.565 39 30.46 39H4.48c-2.14 0-3.783-1.917-3.432-3.992v-.003c.542-3.262 2.06-6.071 4.96-8.229h.001c6.387-4.756 13.586-4.69 20.612-1.502ZM26.62 9.793c.083 4.69-4.076 8.88-9.008 8.936-5.019.056-9.07-3.869-9.109-8.74-.044-4.875 3.94-8.916 8.9-8.988 4.881-.067 9.135 4.013 9.217 8.792Z"/></svg>
